icons/default/Discord.svg

<path d="M4.33333 18C2.49233 18 1 16.433 1 14.5C1 12.567 2.49233 11 4.33333 11H5V18H4.33333Z" stroke="black"
	stroke-miterlimit="10" />
<path d="M19.6667 11C21.5077 11 23 12.567 23 14.5C23 16.433 21.5077 18 19.6667 18H19V11H19.6667Z" stroke="black"
	stroke-miterlimit="10" />
<path d="M5 13V9.4C5 9.4 5 3 12 3C19 3 19 9.4 19 9.4V11.8" stroke="black" stroke-miterlimit="10" />
<path d="M19 18V19.8182L13.7826 22H11V20.5455H13.7826V21.6364" stroke="black" stroke-miterlimit="10" />

<path d="M4.333 18C2.493 18 1 16.433 1 14.5S2.492 11 4.333 11H5v7h-.667Z" stroke="#000" stroke-miterlimit="10"/><path d="M19.667 11C21.507 11 23 12.567 23 14.5S21.508 18 19.667 18H19v-7h.667Z" stroke="#000" stroke-miterlimit="10"/><path d="M5 13V9.4S5 3 12 3s7 6.4 7 6.4v2.4" stroke="#000" stroke-miterlimit="10"/><path d="M19 18v1.818L13.783 22H11v-1.454h2.783v1.09" stroke="#000" stroke-miterlimit="10"/>
